markup/src/img/icon-03.svg

<svg width="33" height="27" viewBox="0 0 33 27" fill="none" xmlns="http://www.w3.org/2000/svg">
<path d="M20.9722 9.21544C20.9354 9.21847 20.8986 9.22584 20.8627 9.23772L19.7502 9.60578C19.6343 9.6441 19.5076 9.63636 19.3981 9.58268C19.1445 9.45849 18.8816 9.35009 18.6109 9.25871C18.4954 9.21977 18.4004 9.13638 18.3458 9.02804L17.8216 7.98739C17.7424 7.83008 17.5804 7.73071 17.4032 7.73071H15.5968C15.4196 7.73071 15.2576 7.83008 15.1784 7.98739L14.6542 9.02804C14.5996 9.13638 14.5047 9.21977 14.3891 9.25871C14.1183 9.35003 13.8555 9.45843 13.6019 9.58268C13.4923 9.63636 13.3657 9.6441 13.2498 9.60578L12.1373 9.23772C11.9692 9.18213 11.7839 9.22553 11.6586 9.34991L10.3813 10.6177C10.256 10.7421 10.2122 10.926 10.2683 11.0929L10.6391 12.1971C10.6777 12.3121 10.6699 12.4378 10.6158 12.5466C10.4907 12.7983 10.3815 13.0592 10.2894 13.3279C10.2502 13.4426 10.1661 13.5368 10.057 13.591L9.00854 14.1113C8.85005 14.19 8.74994 14.3507 8.74994 14.5266V16.3195C8.74994 16.4954 8.85005 16.6562 9.00854 16.7348L10.057 17.2552C10.1661 17.3093 10.2502 17.4035 10.2894 17.5182C10.3814 17.787 10.4906 18.0479 10.6158 18.2996C10.6699 18.4084 10.6777 18.534 10.6391 18.6491L10.2683 19.7533C10.2122 19.9201 10.256 20.1041 10.3813 20.2285L11.6586 21.4962C11.7839 21.6206 11.9692 21.664 12.1373 21.6084L13.2498 21.2404C13.3657 21.202 13.4924 21.2098 13.6019 21.2635C13.8555 21.3877 14.1184 21.4961 14.3891 21.5874C14.5046 21.6264 14.5996 21.7098 14.6542 21.8181L15.1784 22.8588C15.2576 23.0161 15.4196 23.1154 15.5968 23.1154H17.4032C17.5804 23.1154 17.7424 23.0161 17.8216 22.8588L18.3458 21.8181C18.4004 21.7098 18.4953 21.6264 18.6109 21.5874C18.8817 21.4961 19.1445 21.3877 19.3981 21.2635C19.5077 21.2098 19.6343 21.202 19.7502 21.2404L20.8627 21.6084C21.0308 21.664 21.2161 21.6206 21.3414 21.4962L22.6187 20.2285C22.744 20.1041 22.7878 19.9201 22.7317 19.7533L22.3609 18.6491C22.3223 18.534 22.3301 18.4083 22.3842 18.2996C22.5093 18.0479 22.6185 17.787 22.7106 17.5182C22.7498 17.4036 22.8339 17.3093 22.943 17.2552L23.9915 16.7348C24.15 16.6562 24.2501 16.4954 24.2501 16.3195V14.5266C24.2501 14.3507 24.15 14.19 23.9915 14.1113L22.943 13.591C22.8339 13.5368 22.7498 13.4426 22.7106 13.3279C22.6186 13.0591 22.5094 12.7982 22.3842 12.5466C22.3301 12.4378 22.3223 12.3121 22.3609 12.1971L22.7317 11.0929C22.7878 10.926 22.744 10.7421 22.6187 10.6177M13.5937 13.5L11.6563 15.423L13.5937 17.3461M19.4063 13.5L21.3437 15.423L19.4063 17.3461M17.4687 13.5L15.5313 17.3461M8.41418 25.9999H30.4406C31.3018 25.9999 32 25.307 32 24.4522V4.84615M32 4.84615H1M32 4.84615V2.54775C32 1.69296 31.3018 1 30.4406 1H6.18661M1 4.84615V24.4523C1 25.307 1.69815 26 2.55936 26H6.23108M1 4.84615V2.54775C1 1.69296 1.69815 1 2.55936 1H4.00351" stroke="#40AC6C" stroke-miterlimit="10" stroke-linecap="round" stroke-linejoin="round"/>
</svg>

<svg width="33" height="27" fill="none" xmlns="http://www.w3.org/2000/svg"><path d="M20.972 9.215a.472.472 0 0 0-.11.023l-1.112.368a.467.467 0 0 1-.352-.023 6.562 6.562 0 0 0-.787-.324.463.463 0 0 1-.265-.231l-.524-1.04a.468.468 0 0 0-.419-.257h-1.806a.47.47 0 0 0-.419.256l-.524 1.041a.463.463 0 0 1-.265.23c-.27.092-.534.2-.787.325a.467.467 0 0 1-.352.023l-1.113-.368a.47.47 0 0 0-.478.112l-1.278 1.268a.462.462 0 0 0-.113.475l.371 1.104c.039.115.03.24-.023.35a6.466 6.466 0 0 0-.327.78.462.462 0 0 1-.232.264l-1.048.52a.464.464 0 0 0-.26.416v1.793c0 .175.101.336.26.415l1.048.52c.11.054.193.149.232.263.092.269.202.53.327.782a.458.458 0 0 1 .023.35l-.37 1.103a.462.462 0 0 0 .112.476l1.278 1.267a.47.47 0 0 0 .478.112l1.113-.368a.467.467 0 0 1 .352.024c.253.124.516.232.787.323.116.04.21.123.265.231l.524 1.04a.47.47 0 0 0 .419.257h1.806c.177 0 .34-.099.419-.256l.524-1.04a.463.463 0 0 1 .265-.232c.27-.09.534-.2.787-.323a.467.467 0 0 1 .352-.024l1.113.368a.47.47 0 0 0 .478-.112l1.278-1.267a.462.462 0 0 0 .113-.476l-.371-1.104a.458.458 0 0 1 .023-.35 6.46 6.46 0 0 0 .327-.78.462.462 0 0 1 .232-.264l1.048-.52a.464.464 0 0 0 .26-.415v-1.793a.466.466 0 0 0-.26-.416l-1.048-.52a.462.462 0 0 1-.232-.263 6.42 6.42 0 0 0-.327-.781.458.458 0 0 1-.023-.35l.37-1.104a.462.462 0 0 0-.112-.475M13.594 13.5l-1.938 1.923 1.938 1.923m5.812-3.846l1.938 1.923-1.938 1.923M17.47 13.5l-1.938 3.846M8.414 26h22.027C31.3 26 32 25.307 32 24.452V4.846m0 0H1m31 0V2.548C32 1.693 31.302 1 30.44 1H6.188M1 4.846v19.606C1 25.307 1.698 26 2.56 26h3.67M1 4.846V2.548C1 1.693 1.698 1 2.56 1h1.444" stroke="#40AC6C" stroke-miterlimit="10" stroke-linecap="round" stroke-linejoin="round"/></svg>
